X:1
T:Even Me
T:William Batchelder Bradbury, 1862
T:Even Me
T:Public Domain
C:William Batchelder Bradbury, 1862
Z:Public Domain
%%score ( 1 2 ) ( 3 4 )
L:1/8
M:6/4
K:G
V:1 treble 
V:2 treble 
V:3 bass 
V:4 bass 
V:1
 [DB]4 [Dc]2 [Dd]4 [DG]2 | [Dc]4 [DB]2 [DB]4 [DA]2 | [DA]4 [DB]2 [Ec]4 [EA]2 | [DG]4 [DF]2 [DG]6 | %4
 [DB]4 [Dc]2 [Dd]4 [DG]2 | [Dc]4 [DB]2 [DB]4 [DA]2 | [DA]4 [DB]2 [Ec]4 [EA]2 | [DG]4 [DF]2 [DG]6 | %8
 [Gd]4 [DB]2 [Gd]6 | [GB]4 [DG]2 [GB]6 | [DB]4 [Ec]2 [Fd]4 G2 | [GB]4 [FA]2 G6 |] %12
V:2
 x12 | x12 | x12 | x12 | x12 | x12 | x12 | x12 | x12 | x12 | x12 | x6 G6 |] %12
V:3
 G,4 [G,A,]2 [G,B,]4 [G,B,]2 | [F,A,]4 G,2 [D,G,]4 [D,F,]2 | [D,F,]4 G,2 [C,G,]4 [C,C]2 | %3
 [D,B,]4 [D,A,]2 [G,,B,]6 | G,4 [G,A,]2 [G,B,]4 [G,B,]2 | [F,A,]4 G,2 [D,G,]4 [D,F,]2 | %6
 [D,F,]4 G,2 [C,G,]4 [C,C]2 | [D,B,]4 [D,A,]2 [G,,B,]6 | [G,B,]4 G,2 [G,B,]6 | %9
 [G,,G,D]4 [G,,G,B,]2 [G,,G,D]6 | G,4 [E,G,]2 [D,A,]4 [G,B,]2 | [D,D]4 [D,C]2 [G,,B,]6 |] %12
V:4
 G,4 x8 | x12 | x4 G,2 x6 | x12 | G,4 x8 | x12 | x4 G,2 x6 | x12 | x4 G,2 x6 | x12 | G,4 x8 | %11
 x12 |] %12

